frontend/icons/lock.svg

<svg width="18" height="20" viewBox="0 0 18 20" fill="none" xmlns="http://www.w3.org/2000/svg">
<path d="M14 8V6C14 3.23858 11.7614 1 9 1C6.23858 1 4 3.23858 4 6V8M9 12.5V14.5M5.8 19H12.2C13.8802 19 14.7202 19 15.362 18.673C15.9265 18.3854 16.3854 17.9265 16.673 17.362C17 16.7202 17 15.8802 17 14.2V12.8C17 11.1198 17 10.2798 16.673 9.63803C16.3854 9.07354 15.9265 8.6146 15.362 8.32698C14.7202 8 13.8802 8 12.2 8H5.8C4.11984 8 3.27976 8 2.63803 8.32698C2.07354 8.6146 1.6146 9.07354 1.32698 9.63803C1 10.2798 1 11.1198 1 12.8V14.2C1 15.8802 1 16.7202 1.32698 17.362C1.6146 17.9265 2.07354 18.3854 2.63803 18.673C3.27976 19 4.11984 19 5.8 19Z" stroke="#8A95A8" stroke-width="2" stroke-linecap="round" stroke-linejoin="round"/>
</svg>

<svg xmlns="http://www.w3.org/2000/svg" width="18" height="20" fill="none" viewBox="0 0 18 20"><path stroke="#8a95a8" stroke-linecap="round" stroke-linejoin="round" stroke-width="2" d="M14 8V6A5 5 0 0 0 4 6v2m5 4.5v2M5.8 19h6.4c1.68 0 2.52 0 3.162-.327a3 3 0 0 0 1.311-1.311C17 16.72 17 15.88 17 14.2v-1.4c0-1.68 0-2.52-.327-3.162a3 3 0 0 0-1.311-1.311C14.72 8 13.88 8 12.2 8H5.8c-1.68 0-2.52 0-3.162.327a3 3 0 0 0-1.311 1.311C1 10.28 1 11.12 1 12.8v1.4c0 1.68 0 2.52.327 3.162a3 3 0 0 0 1.311 1.311C3.28 19 4.12 19 5.8 19"/></svg>
